**harm	**harte	**timestamp	**phrase	**leadinstrument	**kern
*M4/4	*M4/4	*	*	*	*
*D-:	*D-:	*	*	*	*D-:
1r;	N	0	.	r	1r;
=1	=1	=1	=1	=1	=1
*>A_intro	*>A_intro	*>A_intro	*>A_intro	*>A_intro	*>A_intro
1I7	D-:maj7	0.325	newline	voice	1D- 1f 1a- 1cc
=2	=2	=2	=2	=2	=2
2ii7	E-:min7	2.582	.	voice	2E- 2g- 2b- 2dd-
2V7	A-:7	3.71	.	voice	2A- 2cc 2ee- 2gg-
=3	=3	=3	=3	=3	=3
1I7	D-:maj7	4.838	newline	voice	1D- 1f 1a- 1cc
=4	=4	=4	=4	=4	=4
2ii7	E-:min7	6.978	.	voice	2E- 2g- 2b- 2dd-
2V7	A-:7	8.048	.	voice	2A- 2cc 2ee- 2gg-
=5	=5	=5	=5	=5	=5
1I7	D-:maj7	9.118	newline	voice	1D- 1f 1a- 1cc
=6	=6	=6	=6	=6	=6
2ii7	E-:min7	11.341	.	voice	2E- 2g- 2b- 2dd-
2V7	A-:7	12.452	.	voice	2A- 2cc 2ee- 2gg-
=7	=7	=7	=7	=7	=7
1I7	D-:maj7	13.563	newline	voice	1D- 1f 1a- 1cc
=8	=8	=8	=8	=8	=8
2ii7	E-:min7	15.75	.	voice	2E- 2g- 2b- 2dd-
2V7	A-:7	16.844	.	voice	2A- 2cc 2ee- 2gg-
=9	=9	=9	=9	=9	=9
*>B_verse	*>B_verse	*>B_verse	*>B_verse	*>B_verse	*>B_verse
1I7	D-:maj7	17.938	newline	voice	1D- 1f 1a- 1cc
=10	=10	=10	=10	=10	=10
1I7	D-:maj7	20.174	.	voice	1D- 1f 1a- 1cc
=11	=11	=11	=11	=11	=11
1I7	D-:maj7	22.411	.	voice	1D- 1f 1a- 1cc
=12	=12	=12	=12	=12	=12
2ii7	E-:min7	24.648	.	voice	2E- 2g- 2b- 2dd-
2V7	A-:13	25.766	.	voice	2A- 2cc 2ee- 2gg-
=13	=13	=13	=13	=13	=13
1I7	D-:maj7	26.885	newline	voice	1D- 1f 1a- 1cc
=14	=14	=14	=14	=14	=14
2ii7	E-:min7	29.06	.	voice	2E- 2g- 2b- 2dd-
2V7	A-:13	30.148	.	voice	2A- 2cc 2ee- 2gg-
=15	=15	=15	=15	=15	=15
1I7	D-:maj7	31.236	.	voice	1D- 1f 1a- 1cc
=16	=16	=16	=16	=16	=16
2ii7	E-:min7	33.412	.	voice	2E- 2g- 2b- 2dd-
2V7	A-:13	34.5	.	voice	2A- 2cc 2ee- 2gg-
=17	=17	=17	=17	=17	=17
1I7	D-:maj7	35.588	newline	voice	1D- 1f 1a- 1cc
=18	=18	=18	=18	=18	=18
1I7	D-:maj7	37.788	.	voice	1D- 1f 1a- 1cc
=19	=19	=19	=19	=19	=19
1I7	D-:maj7	39.989	.	voice	1D- 1f 1a- 1cc
=20	=20	=20	=20	=20	=20
2ii7	E-:min7	42.189	.	voice	2E- 2g- 2b- 2dd-
2V7	A-:13	43.29	.	voice	2A- 2cc 2ee- 2gg-
=21	=21	=21	=21	=21	=21
1I7	D-:maj7	44.39	newline	voice	1D- 1f 1a- 1cc
=22	=22	=22	=22	=22	=22
2ii7	E-:min7	46.628	.	voice	2E- 2g- 2b- 2dd-
2V7	A-:13	47.747	.	voice	2A- 2cc 2ee- 2gg-
=23	=23	=23	=23	=23	=23
1I	D-:maj	48.866	.	voice	1D- 1f 1a-
=24	=24	=24	=24	=24	=24
1Im7	D-:7	51.105	.	voice	1D- 1f 1a- 1cc
=25	=25	=25	=25	=25	=25
*>C_bridge	*>C_bridge	*>C_bridge	*>C_bridge	*>C_bridge	*>C_bridge
1IV7	G-:maj7	53.343	newline	voice	1G- 1b- 1dd- 1ff
=26	=26	=26	=26	=26	=26
1V7	A-:7	55.556	.	voice	1A- 1cc 1ee- 1gg-
=27	=27	=27	=27	=27	=27
1I7	D-:maj7	57.77	.	voice	1D- 1f 1a- 1cc
=28	=28	=28	=28	=28	=28
1vi	B-:min	59.984	.	voice	1B- 1dd- 1ff
=29	=29	=29	=29	=29	=29
1ii7	E-:min7	62.197	newline	voice	1E- 1g- 1b- 1dd-
=30	=30	=30	=30	=30	=30
1V7	A-:13	64.404	.	voice	1A- 1cc 1ee- 1gg-
=31	=31	=31	=31	=31	=31
1I	D-:maj	66.61	.	voice	1D- 1f 1a-
=32	=32	=32	=32	=32	=32
1Im7	D-:7	68.816	.	voice	1D- 1f 1a- 1cc
=33	=33	=33	=33	=33	=33
1IV7	G-:maj7	71.023	newline	voice	1G- 1b- 1dd- 1ff
=34	=34	=34	=34	=34	=34
1V7	A-:7	73.254	.	voice	1A- 1cc 1ee- 1gg-
=35	=35	=35	=35	=35	=35
1I7	D-:maj7	75.486	.	voice	1D- 1f 1a- 1cc
=36	=36	=36	=36	=36	=36
1vi	B-:min	77.718	.	voice	1B- 1dd- 1ff
=37	=37	=37	=37	=37	=37
1II7	E-:9	79.949	newline	voice	1E- 1g 1b- 1dd-
=38	=38	=38	=38	=38	=38
1II7	E-:9	82.165	.	voice	1E- 1g 1b- 1dd-
=39	=39	=39	=39	=39	=39
1V7	A-:7	84.381	.	voice	1A- 1cc 1ee- 1gg-
=40	=40	=40	=40	=40	=40
1V7	A-:7	86.598	.	voice	1A- 1cc 1ee- 1gg-
=41	=41	=41	=41	=41	=41
*>B_verse	*>B_verse	*>B_verse	*>B_verse	*>B_verse	*>B_verse
1I7	D-:maj7	88.814	newline	voice	1D- 1f 1a- 1cc
=42	=42	=42	=42	=42	=42
1I7	D-:maj7	91.026	.	voice	1D- 1f 1a- 1cc
=43	=43	=43	=43	=43	=43
1I7	D-:maj7	93.238	.	voice	1D- 1f 1a- 1cc
=44	=44	=44	=44	=44	=44
2ii7	E-:min7	95.45	.	voice	2E- 2g- 2b- 2dd-
2V7	A-:13	96.556	.	voice	2A- 2cc 2ee- 2gg-
=45	=45	=45	=45	=45	=45
1I7	D-:maj7	97.663	newline	voice	1D- 1f 1a- 1cc
=46	=46	=46	=46	=46	=46
2ii7	E-:min7	99.868	.	voice	2E- 2g- 2b- 2dd-
2V7	A-:13	100.971	.	voice	2A- 2cc 2ee- 2gg-
=47	=47	=47	=47	=47	=47
1I	D-:maj	102.074	.	voice	1D- 1f 1a-
=48	=48	=48	=48	=48	=48
1Im7	D-:7	104.28	.	voice	1D- 1f 1a- 1cc
=49	=49	=49	=49	=49	=49
*>C2_bridge	*>C2_bridge	*>C2_bridge	*>C2_bridge	*>C2_bridge	*>C2_bridge
1IV7	G-:maj7	106.486	newline	voice	1G- 1b- 1dd- 1ff
=50	=50	=50	=50	=50	=50
1V7	A-:7	108.722	.	voice	1A- 1cc 1ee- 1gg-
=51	=51	=51	=51	=51	=51
1I7	D-:maj7	110.957	.	voice	1D- 1f 1a- 1cc
=52	=52	=52	=52	=52	=52
1vi	B-:min	113.193	.	voice	1B- 1dd- 1ff
=53	=53	=53	=53	=53	=53
1II7	E-:9	115.429	newline	voice	1E- 1g 1b- 1dd-
=54	=54	=54	=54	=54	=54
1II7	E-:9	117.644	.	voice	1E- 1g 1b- 1dd-
=55	=55	=55	=55	=55	=55
1V7	A-:7	119.86	.	voice	1A- 1cc 1ee- 1gg-
=56	=56	=56	=56	=56	=56
1V7	A-:7	122.075	.	voice	1A- 1cc 1ee- 1gg-
=57	=57	=57	=57	=57	=57
*>B_verse	*>B_verse	*>B_verse	*>B_verse	*>B_verse	*>B_verse
1I7	D-:maj7	124.291	newline	voice	1D- 1f 1a- 1cc
=58	=58	=58	=58	=58	=58
1I7	D-:maj7	126.485	.	voice	1D- 1f 1a- 1cc
=59	=59	=59	=59	=59	=59
1I7	D-:maj7	128.68	.	voice	1D- 1f 1a- 1cc
=60	=60	=60	=60	=60	=60
2ii7	E-:min7	130.874	.	voice	2E- 2g- 2b- 2dd-
2V7	A-:13	131.971	.	voice	2A- 2cc 2ee- 2gg-
=61	=61	=61	=61	=61	=61
1I7	D-:maj7	133.068	newline	voice	1D- 1f 1a- 1cc
=62	=62	=62	=62	=62	=62
2ii7	E-:min7	135.28	.	voice	2E- 2g- 2b- 2dd-
2V7	A-:13	136.385	.	voice	2A- 2cc 2ee- 2gg-
=63	=63	=63	=63	=63	=63
1I7	D-:maj7	137.491	.	voice	1D- 1f 1a- 1cc
=64	=64	=64	=64	=64	=64
2ii7	E-:min7	139.702	.	voice	2E- 2g- 2b- 2dd-
2V7	A-:13	140.808	.	voice	2A- 2cc 2ee- 2gg-
=65	=65	=65	=65	=65	=65
1I7	D-:maj7	141.913	newline	voice	1D- 1f 1a- 1cc
=66	=66	=66	=66	=66	=66
2ii7	E-:min7	144.132	.	voice	2E- 2g- 2b- 2dd-
2V7	A-:7	145.241	.	voice	2A- 2cc 2ee- 2gg-
=67	=67	=67	=67	=67	=67
*>B2_coda	*>B2_coda	*>B2_coda	*>B2_coda	*>B2_coda	*>B2_coda
1I7	D-:maj7	146.35	newline	voice	1D- 1f 1a- 1cc
=68	=68	=68	=68	=68	=68
1V7	A-:7	148.729	.	voice	1A- 1cc 1ee- 1gg-
=69	=69	=69	=69	=69	=69
1I7	D-:maj7	151.108	.	voice	1D- 1f 1a- 1cc
=70	=70	=70	=70	=70	=70
1I7	D-:maj7	153.486	.	voice	1D- 1f 1a- 1cc
1r;	N	155.865	.	r	1r;
=71	=71	=71	=71	=71	=71
1I	D-:maj6(9)	158.244	newline	piano	1D- 1f 1a-
1r;	N	162.122	.	r	1r;
1r;	N	164.989	.	r	1r;
*-	*-	*-	*-	*-	*-
!!!OTL: Jimmy's Girl
!!!COC: Johnny Tillotson
!!!BillboardChartDate: 1961/02/20
!!!BillboardPeak: 25
!!!BillboardWeeksOnChart: 11
!!!SampleTargetRank: 28
!!!SampleActualRank: 27
!!!SampleID#: 0410
!!!RDF**harmony: **recip + pitch class of root + harmonic quality
!!!RDF**harte: Chris Harte's syntax, used by MIREX
!!!RDF**phrase: newline = linebreak in original McGill transcription
!!!RDF**timestamp: McGill audio timestamp in seconds
!!!RDF**leadinstrument: original McGill primary instrumentation annotation
!!!RDT: 2017/01/12/
!!!ENC: Nathaniel Condit-Schultz
!!!EST: Awating manual error checking and editing.
